usr/share/icons/biglinux-icons-material/scalable/apps/preferences-desktop-accessibility.svg

<?xml version="1.0" encoding="UTF-8" standalone="no"?>
<svg
   width="24"
   height="24"
   viewBox="0 0 6.349875 6.349875"
   version="1.1"
   id="svg2"
   sodipodi:docname="gnome-settings-accessibility-technologies.svg"
   inkscape:version="1.3 (0e150ed6c4, 2023-07-21)"
   xmlns:inkscape="http://www.inkscape.org/namespaces/inkscape"
   xmlns:sodipodi="http://sodipodi.sourceforge.net/DTD/sodipodi-0.dtd"
   xmlns="http://www.w3.org/2000/svg"
   xmlns:svg="http://www.w3.org/2000/svg">
  <defs
     id="defs2">
    <radialGradient
       fx="0"
       fy="0"
       cx="0"
       cy="0"
       r="1"
       gradientUnits="userSpaceOnUse"
       gradientTransform="matrix(0,5.8207192,-5.8207192,0,3.1748171,0.26456849)"
       spreadMethod="pad"
       id="radialGradient12763-3">
      <stop
         style="stop-color:#c0c6e5;stop-opacity:1;"
         offset="0"
         id="stop12759-6" />
      <stop
         style="stop-color:#5767bf;stop-opacity:1;"
         offset="1"
         id="stop12761-7" />
    </radialGradient>
  </defs>
  <sodipodi:namedview
     id="namedview2"
     pagecolor="#ffffff"
     bordercolor="#000000"
     borderopacity="0.25"
     inkscape:showpageshadow="2"
     inkscape:pageopacity="0.0"
     inkscape:pagecheckerboard="0"
     inkscape:deskcolor="#d1d1d1"
     inkscape:zoom="6.3359375"
     inkscape:cx="70.549938"
     inkscape:cy="50.584464"
     inkscape:window-width="2560"
     inkscape:window-height="998"
     inkscape:window-x="0"
     inkscape:window-y="0"
     inkscape:window-maximized="1"
     inkscape:current-layer="svg2" />
  <path
     d="m 2.5380664,0.29490713 c 0.031749,0 0.062088,-0.004233 0.091015,-0.0123471 0.3802869,-0.0250468 0.760574,-0.0236356 1.1398025,0.002822 0.3443043,0.0275161 0.6776727,0.10195076 1.000458,0.22436222 0.5358591,0.22048178 0.9023879,0.60359085 1.1009979,1.14791625 0.1114755,0.3280769 0.1788548,0.6656787 0.1996681,1.011394 0.027516,0.4356718 0.017991,0.86958 -0.030338,1.3038408 C 6.0026285,4.2773368 5.9239607,4.5694311 5.8026075,4.8505893 5.5778925,5.3384713 5.2127747,5.674662 4.7086651,5.859161 4.3005094,5.9970946 3.8803593,6.0701179 3.4475095,6.0771734 2.9624497,6.1032793 2.4816231,6.0658839 2.0050296,5.9681672 1.1298052,5.7737904 0.58830212,5.2393429 0.3844005,4.3655295 0.29761887,3.9728955 0.257403,3.5746173 0.2658695,3.1721057 0.25634469,2.7434894 0.30149944,2.3219282 0.40239181,1.9056586 0.61722924,1.0900525 1.1354497,0.58417912 1.9567002,0.38874408 2.1482545,0.34182556 2.3426313,0.31007619 2.5380664,0.29490713 Z"
     style="fill:url(#radialGradient12763-3);fill-rule:evenodd;stroke:none;stroke-width:0.35277"
     id="path12765-6" />
  <path
     d="m 3.1751287,1.4551797 a 0.40466016,0.40466016 0 1 0 0,0.8093203 0.404469,0.404469 0 0 0 0,-0.808938 z M 1.9613395,2.4671167 V 2.6697335 H 2.7702774 V 4.8946953 H 2.9728943 V 3.6805237 H 3.3769809 V 4.8946953 H 3.5792154 V 2.6697335 h 0.80932 V 2.4671167 h -1.618258 z"
     fill="#ffffff"
     id="path3"
     style="stroke-width:0.382296" />
  <path
     id="circle1009"
     style="fill:#c0c6e5;fill-opacity:1;stroke-width:0.531281;paint-order:markers stroke fill"
     d="m 4.8822932,3.0137102 a 2.248914,2.248914 0 0 0 -2.248914,2.2489141 2.248914,2.248914 0 0 0 0.1519257,0.8107872 c 0.2198578,0.014282 0.4403368,0.015545 0.661962,0.00362 C 3.8801163,6.0699733 4.3005085,5.996892 4.7086638,5.8589586 5.2127729,5.6744597 5.5779176,5.3386527 5.8026324,4.8507712 5.9239854,4.5696133 6.0027811,4.2772471 6.0398225,3.9728059 6.0625484,3.7686024 6.075931,3.5647198 6.0816796,3.3604522 A 2.248914,2.248914 0 0 0 4.8822932,3.0137102 Z" />
  <path
     id="path1011"
     style="font-variant-ligatures:normal;font-variant-position:normal;font-variant-caps:normal;font-variant-numeric:normal;font-variant-alternates:normal;font-variant-east-asian:normal;font-feature-settings:normal;font-variation-settings:normal;text-indent:0;text-decoration-line:none;text-decoration-style:solid;text-decoration-color:#000000;text-transform:none;text-orientation:mixed;white-space:normal;shape-padding:0;shape-margin:0;inline-size:0;isolation:auto;mix-blend-mode:normal;fill:#ffffff;fill-opacity:1;stroke-width:0.531281"
     d="M 4.7784256,3.5764555 A 0.41918102,0.41918102 0 0 0 4.3598548,3.9950263 0.20719975,0.20719975 0 0 1 4.1510861,4.2012112 0.19498027,0.19498027 0 0 1 4.0539363,4.1738233 0.10519372,0.10519372 0 0 0 4.052386,4.1733065 0.42183743,0.42183743 0 0 0 3.4798224,4.327816 L 3.3707873,4.5066129 a 0.10519372,0.10519372 0 0 0 -0.00103,0.00258 0.42130615,0.42130615 0 0 0 0.1524425,0.5725636 0.20879359,0.20879359 0 0 1 0,0.3627614 0.42024359,0.42024359 0 0 0 -0.1524425,0.5715301 l 0.036173,0.063044 c 0.013855,-6.424e-4 0.027479,-0.00132 0.04134,-0.00207 0.065895,-0.00107 0.131575,-0.00362 0.1968834,-0.00775 L 3.5526848,5.9111507 a 0.20613718,0.20613718 0 0 1 0.075446,-0.283698 0.42077487,0.42077487 0 0 0 0,-0.7281066 0.20719975,0.20719975 0 0 1 -0.075446,-0.2852483 L 3.6606864,4.4358176 a 0.10519372,0.10519372 0 0 0 0.00155,-0.00207 0.20773103,0.20773103 0 0 1 0.285765,-0.07803 0.40749283,0.40749283 0 0 0 0.2015341,0.056326 0.10519372,0.10519372 0 0 0 0.00103,0 c 0.2284508,0 0.4164167,-0.185986 0.4196044,-0.4144368 a 0.10519372,0.10519372 0 0 0 5.168e-4,0 0.10519372,0.10519372 0 0 0 0,-5.167e-4 0.10519372,0.10519372 0 0 0 0,-5.168e-4 0.10519372,0.10519372 0 0 0 -5.168e-4,-5.168e-4 0.20719975,0.20719975 0 0 1 0.2087687,-0.2087686 h 0.2056681 a 0.20932487,0.20932487 0 0 1 0.2098022,0.2154864 0.10519372,0.10519372 0 0 0 0,0.00413 0.41864974,0.41864974 0 0 0 0.6288898,0.3524263 0.20719975,0.20719975 0 0 1 0.1503755,-0.023254 c 0.016311,-0.067809 0.030504,-0.1360781 0.042374,-0.2051514 a 0.42183743,0.42183743 0 0 0 -0.2971336,0.044958 0.10519372,0.10519372 0 0 0 -0.00155,0.00103 A 0.20773103,0.20773103 0 0 1 5.4326364,4.1025112 0.19498027,0.19498027 0 0 1 5.4052484,4.0048447 0.42077487,0.42077487 0 0 0 4.9851273,3.5764555 H 4.7789424 Z m 0.1038676,1.0541784 c -0.3485202,0 -0.6325071,0.2840014 -0.6325071,0.6319904 0,0.2808635 0.1848501,0.5210366 0.4392411,0.6030521 0.00658,-0.00219 0.013065,-0.0045 0.019637,-0.00672 0.3265115,-0.1194999 0.5945597,-0.3025361 0.8040695,-0.5493097 0.00113,-0.015332 0.00155,-0.0309 0.00155,-0.046508 0,-0.3479889 -0.2840013,-0.6319903 -0.6319903,-0.6319903 z m 0,0.2108357 c 0.2337636,0 0.4211546,0.1873766 0.4211546,0.4216714 0,0.2342949 -0.187391,0.4216714 -0.4211546,0.4216714 -0.2337636,0 -0.4216714,-0.1879078 -0.4216714,-0.4216714 0,-0.2337635 0.1873765,-0.4216714 0.4216714,-0.4216714 z" />
</svg>

<svg xmlns="http://www.w3.org/2000/svg" width="24" height="24" viewBox="0 0 6.35 6.35"><defs><radialGradient id="a" cx="0" cy="0" r="1" fx="0" fy="0" gradientTransform="rotate(90 1.455 1.72) scale(5.82072)" gradientUnits="userSpaceOnUse" spreadMethod="pad"><stop offset="0" style="stop-color:#c0c6e5;stop-opacity:1"/><stop offset="1" style="stop-color:#5767bf;stop-opacity:1"/></radialGradient></defs><path d="M2.538.295A.335.335 0 0 0 2.63.283c.38-.025.76-.024 1.14.002a3.62 3.62 0 0 1 1 .225c.536.22.903.603 1.101 1.148.112.328.18.665.2 1.011.028.436.018.87-.03 1.304a3.166 3.166 0 0 1-.237.878c-.225.487-.59.824-1.094 1.008a4.125 4.125 0 0 1-1.261.218 5.644 5.644 0 0 1-1.443-.109C1.13 5.774.588 5.24.385 4.366a5.025 5.025 0 0 1-.12-1.194c-.009-.429.036-.85.137-1.266C.617 1.09 1.135.584 1.957.389c.191-.047.386-.079.581-.094Z" style="fill:url(#a);fill-rule:evenodd;stroke:none;stroke-width:.35277"/><path fill="#fff" d="M3.175 1.455a.405.405 0 1 0 0 .81.404.404 0 0 0 0-.81zM1.961 2.467v.203h.81v2.225h.202V3.68h.404v1.214h.202V2.67h.81v-.203H2.77z" style="stroke-width:.382296"/><path d="M4.882 3.014a2.249 2.249 0 0 0-2.249 2.249 2.249 2.249 0 0 0 .152.81c.22.015.44.016.662.004.433-.007.854-.08 1.262-.218.504-.185.869-.52 1.094-1.008.121-.281.2-.574.237-.878.023-.204.036-.408.042-.613a2.249 2.249 0 0 0-1.2-.346Z" style="fill:#c0c6e5;fill-opacity:1;stroke-width:.531281;paint-order:markers stroke fill"/><path d="M4.778 3.576a.42.42 0 0 0-.418.419.207.207 0 0 1-.209.206.195.195 0 0 1-.097-.027.105.105 0 0 0-.002 0 .422.422 0 0 0-.572.154l-.11.179a.105.105 0 0 0 0 .002.421.421 0 0 0 .152.573.209.209 0 0 1 0 .363.42.42 0 0 0-.152.571l.036.063.041-.002c.066-.001.132-.004.197-.008l-.091-.158a.206.206 0 0 1 .075-.284.42.42 0 0 0 0-.728.207.207 0 0 1-.075-.285l.108-.178a.105.105 0 0 0 .001-.002.208.208 0 0 1 .286-.078.407.407 0 0 0 .202.056.422.422 0 0 0 .42-.414.105.105 0 0 0 0-.001.207.207 0 0 1 .209-.21h.206a.21.21 0 0 1 .21.216.105.105 0 0 0 0 .004.419.419 0 0 0 .628.352.207.207 0 0 1 .15-.023c.017-.068.031-.136.043-.205a.422.422 0 0 0-.297.045.105.105 0 0 0-.002 0 .208.208 0 0 1-.284-.073.195.195 0 0 1-.028-.098.42.42 0 0 0-.42-.429H4.78Zm.104 1.055a.633.633 0 0 0-.193 1.235l.02-.007c.326-.12.594-.303.804-.55a.634.634 0 0 0-.63-.678zm0 .21a.42.42 0 0 1 .421.422.42.42 0 1 1-.843 0 .42.42 0 0 1 .422-.422z" style="font-variant-ligatures:normal;font-variant-position:normal;font-variant-caps:normal;font-variant-numeric:normal;font-variant-alternates:normal;font-variant-east-asian:normal;font-feature-settings:normal;font-variation-settings:normal;text-indent:0;text-decoration-line:none;text-decoration-style:solid;text-decoration-color:#000;text-transform:none;text-orientation:mixed;white-space:normal;shape-padding:0;shape-margin:0;inline-size:0;isolation:auto;mix-blend-mode:normal;fill:#fff;fill-opacity:1;stroke-width:.531281"/></svg>
